X:184
T:Disappointment. PDF2.184
B:Playford’s Dancing Master, Vol 2, 1713-28
Z:vmp.Ruairidh Greig 2015 www.village-music-project.org.uk
M:C|
L:1/4
Q:1/4=150
K:Gm
BGBd|c/B/A/G/^Fd|c/B/A/G/^FB|A/G/ ^F/=E/D2|
BGdg|f/e/d/c/ Bb|a/g/f/=e/df|g4:|
|:dBdf|e/d/c/B/Ae|d/c/B/A/Gd|c/B/A/G/^Fd|
gdgb|a/g/ ^f/=e/dg/f/|e/d/c/B/A>G|G4:|
W:Each Strain is to be play'd twice over.
W:Then first Cu. meet two Steps, then first Man slips without Side the 2d, and within the third
W:Men, his Partner at the same Time go in and out below the third Cu .| The same back again to
W:the Top:| Then the first Man turns the 2d Wo. half round with his Left-hand, and cast off below
W:her, then first Wo. turns the third Man with her Left-hand, half round, and cast up .| Then the
W:first Man turn the second Man with his Right-hand, and his Partner turns the 2d Wo. with her
W:Left-hand, then Sett at Top, and cast off :|

